X:5
T:The Harp and the Shamrock
M:4/4
L:1/8
R:Hornpipe
C:Pat Crowley
Z:Rob Greenway
S:Rob Greenway <robgreenway:yahoo.com> IrishTradAccord 2005-5-6
K:G
gf|edBe dBGB|AGEF GABd|e2ed efge|dBGB c2BA|
   GEED E2DE|GABG A2Bd|efge dBGB|A2G2 G2:|
|:Bd|e2ed efgf|eddB d2BA|GABd cdeg|dBGB cABA|
    GE~E2 D2DE|GABG A2Bd|efge dBGB|A2G2 G2:|
